fs/voicemail_subtract_16_regular.svg

<svg viewBox="0 0 16 16" fill="none" xmlns="http://www.w3.org/2000/svg" height="1em" width="1em">
  <path d="M6.33159 5C6.43958 5.22731 6.5 5.4816 6.5 5.75C6.5 6.7165 5.7165 7.5 4.75 7.5C3.7835 7.5 3 6.7165 3 5.75C3 4.7835 3.7835 4 4.75 4H9.25C9.95207 4 10.5576 4.41343 10.8364 5.01012C10.7251 5.00341 10.6129 5 10.5 5C10.1867 5 9.87946 5.0262 9.58044 5.07653C9.48075 5.02752 9.36859 5 9.25 5C8.99337 5 8.76684 5.1289 8.63162 5.32548C8.23269 5.46955 7.85519 5.65844 7.50521 5.88607C7.50176 5.84117 7.5 5.79579 7.5 5.75C7.5 5.4816 7.56042 5.22731 7.66841 5H6.33159ZM4 5.75C4 6.16421 4.33579 6.5 4.75 6.5C5.16421 6.5 5.5 6.16421 5.5 5.75C5.5 5.33579 5.16421 5 4.75 5C4.33579 5 4 5.33579 4 5.75ZM12 2.5V5.20703C12.3486 5.30564 12.6832 5.43777 13 5.59971V2.5C13 1.67157 12.3284 1 11.5 1H2.5C1.67157 1 1 1.67157 1 2.5V9C1 9.82843 1.67157 10.5 2.5 10.5H5C5 10.1585 5.03112 9.82428 5.09069 9.5H2.5C2.22386 9.5 2 9.27614 2 9V2.5C2 2.22386 2.22386 2 2.5 2H11.5C11.7761 2 12 2.22386 12 2.5ZM15 10.5C15 12.9853 12.9853 15 10.5 15C8.01472 15 6 12.9853 6 10.5C6 8.01472 8.01472 6 10.5 6C12.9853 6 15 8.01472 15 10.5ZM13 10.5C13 10.2239 12.7761 10 12.5 10H8.5C8.22386 10 8 10.2239 8 10.5C8 10.7761 8.22386 11 8.5 11H12.5C12.7761 11 13 10.7761 13 10.5Z" fill="#212121"/>
</svg>

<svg viewBox="0 0 16 16" fill="none" xmlns="http://www.w3.org/2000/svg" height="1em" width="1em">
  <path d="M6.332 5A1.75 1.75 0 1 1 4.75 4h4.5a1.75 1.75 0 0 1 1.586 1.01 5.59 5.59 0 0 0-1.256.067.747.747 0 0 0-.948.248 5.48 5.48 0 0 0-1.127.561A1.776 1.776 0 0 1 7.668 5H6.332ZM4 5.75a.75.75 0 1 0 1.5 0 .75.75 0 0 0-1.5 0Zm8-3.25v2.707c.349.099.683.23 1 .393V2.5A1.5 1.5 0 0 0 11.5 1h-9A1.5 1.5 0 0 0 1 2.5V9a1.5 1.5 0 0 0 1.5 1.5H5c0-.341.031-.676.09-1H2.5A.5.5 0 0 1 2 9V2.5a.5.5 0 0 1 .5-.5h9a.5.5 0 0 1 .5.5Zm3 8a4.5 4.5 0 1 1-9 0 4.5 4.5 0 0 1 9 0Zm-2 0a.5.5 0 0 0-.5-.5h-4a.5.5 0 0 0 0 1h4a.5.5 0 0 0 .5-.5Z" fill="#212121"/>
</svg>
